X: 54
T: Toward Them I Walk
C: Teton Sioux band 1911-1914
N: Derived from sioux054.krn
O: South Dakota, U.S.A.
N: Teton Sioux Music by Frances Densmore, 1918
Z: transcribed to **kern format by Craig Sapp
L: 1/4
M: 3/4
Q: 1/4=58
K: C clef=bass
%%linebreak <none>
G// [I:setbarnb 1]| 
E3 | 
DD3/E/ | 
C3 ||  
[M:2/4]A,A, ||  
[M:3/4]C3- | 
C3- | 
C2E | 
D3 | 
CC3/D/ | 
C3 ||  
[M:2/4]A,A, ||  
[M:3/4]A,3- | 
A,E,E, | 
A,3- | 
A,3- ||  
[M:2/4]A,2 ||  
[M:3/4]A,A,C ||  
[M:2/4]C3/C/ | 
C2- | 
C2 ||  
[M:3/4]A,A,E, ||  
[M:2/4]A,2- | 
A,2 ||  
[M:3/4]G,G,E, ||  
[M:2/4]G,2- | 
G,2 | 
E,E, | 
E,2- | 
E,2- | 
E,2 |]  



